!!!OTL: "Einladung zur Kirchweihe" ALL ENK NACHBARSLEUT
!!!ARE: Europa, Mitteleuropa, Deutschland, Bayern
!!!SCT: Z1324
!!!YEM: Copyright 1995, estate of Helmut Schaffrath.
**kern
*ICvox
*Ivox
*M3/4
*k[f#c#]
*D:
{8f#
8a
=1
8dd
8f#
8a
8g
8f#
8dd
=2
8cc#
8e
8g
8f#}
{8e
8cc#
=3
8ee
8e
8g
8f#
8e
8cc#
=4
4dd
4r}
{8f#
8a
=5
8dd
8f#
8a
8g
8f#
8dd
=6
8cc#
8e
8g
8f#}
{8e
8cc#
=7
8ee
8e
8g
8f#
8e
8cc#
=8
4dd
4r}
{8a
8a
=9
8a
8cc#
8ee
8gg
8ff#
8ee
=10
8dd
8f#
8a
8g}
{8f#
8dd
=11
8cc#
8e
8g
8f#
8e
8cc#
=12
4dd
4r}
{8a
8a
=13
8a
8cc#
8ee
8gg
8ff#
8ee
=14
8dd
8f#
8a
8g}
{8f#
8dd
=15
8cc#
8e
8g
8f#
8e
8cc#
=16
4dd
4r}
==
!!!AGN: Zech -, Schalks - Lied
!!!ONB: ESAC (Essen Associative Code) Database: ZUCCAL
!!!AMT: simple triple
!!!AIN: vox
!!!EED: Helmut Schaffrath
!!!EEV: 1.0
*-
